src/pages/Pricing/Companies/forbes.svg

<svg width="163" height="42" viewBox="0 0 163 42" fill="none" xmlns="http://www.w3.org/2000/svg">
  <path d="M99.2967 12.4111C96.6742 12.4111 94.6143 12.9737 92.5532 14.0967C92.5532 8.10186 92.5532 2.66964 92.7415 0.796875L80.1882 3.04398V4.16807L81.4995 4.35524C83.184 4.72958 83.7487 5.66542 84.1198 7.91469C84.4974 12.4111 84.3081 36.3914 84.1198 40.3262C87.4921 41.076 91.0526 41.6386 94.6132 41.6386C104.543 41.6386 110.538 35.4555 110.538 25.713C110.538 18.0326 105.667 12.4111 99.2967 12.4111ZM94.9875 39.5765C94.2378 39.5765 93.2998 39.5765 92.7393 39.3904C92.5511 36.7679 92.365 25.713 92.5511 15.9716C93.6752 15.5962 94.4238 15.409 95.3618 15.409C99.486 15.409 101.734 20.2797 101.734 26.2734C101.733 33.7699 98.9224 39.5765 94.9875 39.5765ZM32.9741 1.54555H0V3.23115L1.87385 3.41832C4.30812 3.79266 5.24613 5.29109 5.61939 8.85054C6.18305 15.5951 5.9948 27.774 5.61939 33.5795C5.24505 37.14 4.30921 38.8267 1.87385 39.0117L0 39.3882V40.8867H21.1706V39.3882L18.9224 39.0117C16.4871 38.8256 15.5501 37.14 15.1758 33.5795C14.9876 31.1431 14.8004 27.2082 14.8004 22.3386L19.2968 22.5257C22.1075 22.5257 23.4177 24.7739 23.9803 27.958H25.667V14.6603H23.9803C23.4166 17.8454 22.1075 20.0926 19.2968 20.0926L14.8015 20.2808C14.8015 13.9106 14.9886 7.91577 15.1769 4.35632H21.7332C26.7932 4.35632 29.4158 7.54035 31.2885 13.1619L33.1624 12.5993L32.9741 1.54555Z" fill="black"/>
  <path d="M43.6533 12.0367C53.0214 12.0367 57.705 18.407 57.705 26.8371C57.705 34.8929 52.4588 41.6397 43.0907 41.6397C33.7236 41.6397 29.04 35.2684 29.04 26.8371C29.04 18.7813 34.2851 12.0367 43.6533 12.0367ZM43.0907 13.9106C38.9686 13.9106 37.8445 19.5311 37.8445 26.8371C37.8445 33.956 39.7184 39.7637 43.4661 39.7637C47.772 39.7637 48.8983 34.1432 48.8983 26.8371C48.8983 19.7182 47.0266 13.9106 43.0907 13.9106ZM112.972 27.0254C112.972 19.3439 117.842 12.0367 127.398 12.0367C135.264 12.0367 139.013 17.8455 139.013 25.5259H121.589C121.401 32.4576 124.773 37.5165 131.519 37.5165C134.517 37.5165 136.015 36.769 137.89 35.4566L138.638 36.3925C136.764 39.015 132.643 41.6397 127.398 41.6397C118.966 41.6386 112.972 35.6438 112.972 27.0254ZM121.589 23.4659L130.395 23.2777C130.395 19.5311 129.832 13.9106 126.648 13.9106C123.464 13.9106 121.775 19.1556 121.589 23.4659ZM161.311 13.5362C159.063 12.5982 156.066 12.0367 152.694 12.0367C145.763 12.0367 141.452 16.1577 141.452 21.0295C141.452 25.9013 144.633 27.9612 149.135 29.4607C153.818 31.1452 155.13 32.4576 155.13 34.7058C155.13 36.954 153.443 39.0139 150.445 39.0139C146.887 39.0139 144.262 36.954 142.202 31.3324L140.89 31.7089L141.078 39.9519C143.326 40.8877 147.447 41.6386 151.008 41.6386C158.315 41.6386 163 37.8898 163 32.0832C163 28.1484 160.938 25.9013 156.067 24.0263C150.82 21.9664 148.948 20.6551 148.948 18.2187C148.948 15.7834 150.637 14.0967 152.885 14.0967C156.255 14.0967 158.503 16.1577 160.192 21.2167L161.502 20.8423L161.311 13.5362ZM82.0596 12.7865C78.8756 10.9148 73.254 11.8496 70.2572 18.5952L70.4432 12.0378L57.8921 14.4732V15.5973L59.2034 15.7844C60.8912 15.9727 61.6388 16.9085 61.827 19.345C62.2013 23.8413 62.0142 31.7111 61.827 35.6449C61.6388 37.8909 60.8912 39.015 59.2034 39.2032L57.8921 39.3915V40.8899H75.315V39.3915L73.0669 39.2032C71.1941 39.015 70.6315 37.8909 70.4432 35.6449C70.0689 32.0843 70.0689 24.9654 70.2572 20.4691C71.193 19.1567 75.315 18.0337 79.0617 20.4691L82.0596 12.7865Z" fill="black"/>
</svg>

<svg xmlns="http://www.w3.org/2000/svg" width="163" height="42" fill="none">
  <path fill="#000" d="M99.3 12.4c-2.6 0-4.7.6-6.7 1.7L92.7.8 80.2 3v1.2l1.3.2c1.7.3 2.2 1.3 2.6 3.5.4 4.5.2 28.5 0 32.4 3.4.8 7 1.3 10.5 1.3 10 0 16-6.1 16-15.9 0-7.7-5-13.3-11.3-13.3zM95 39.6c-.8 0-1.7 0-2.3-.2-.1-2.6-.3-13.7-.1-23.4 1-.4 1.8-.6 2.8-.6 4 0 6.3 4.9 6.3 10.9 0 7.5-2.8 13.3-6.7 13.3zm-62-38H0v1.6l1.9.2c2.4.4 3.3 1.9 3.7 5.5.6 6.7.4 18.9 0 24.7C5.2 37 4.3 38.8 2 39l-1.9.4v1.5h21.2v-1.5l-2.3-.4c-2.4-.2-3.3-1.9-3.7-5.4-.2-2.5-.4-6.4-.4-11.3l4.5.2c2.8 0 4.1 2.3 4.7 5.5h1.7V14.7H24c-.6 3.1-1.9 5.4-4.7 5.4l-4.5.2c0-6.4.2-12.4.4-16h6.5c5 0 7.7 3.2 9.6 8.9l1.9-.6-.2-11z"/>
  <path fill="#000" d="M43.7 12c9.3 0 14 6.4 14 14.8 0 8-5.2 14.8-14.6 14.8-9.4 0-14-6.3-14-14.8 0-8 5.2-14.8 14.6-14.8zm-.6 2c-4.1 0-5.3 5.5-5.3 12.8 0 7.2 2 13 5.7 13 4.3 0 5.4-5.7 5.4-13 0-7-1.9-12.9-5.8-12.9zM113 27c0-7.7 4.8-15 14.4-15 7.9 0 11.6 5.8 11.6 13.5h-17.4c-.2 7 3.2 12 10 12 3 0 4.4-.7 6.3-2l.7.9a14 14 0 01-11.2 5.2A14 14 0 01113 27zm8.6-3.5l8.8-.2c0-3.8-.6-9.4-3.8-9.4-3.1 0-4.8 5.3-5 9.6zm39.7-10c-2.2-.9-5.2-1.5-8.6-1.5-7 0-11.2 4.2-11.2 9 0 4.9 3.1 7 7.6 8.5 4.7 1.6 6 3 6 5.2 0 2.3-1.7 4.3-4.7 4.3-3.5 0-6.1-2-8.2-7.7l-1.3.4.2 8.3c2.2.9 6.3 1.6 10 1.6 7.2 0 11.9-3.7 11.9-9.5 0-4-2-6.2-7-8-5.2-2.1-7-3.4-7-5.9 0-2.4 1.6-4.1 3.9-4.1 3.4 0 5.6 2 7.3 7.1l1.3-.4-.2-7.3zm-79.2-.7c-3.2-1.9-8.8-1-11.8 5.8l.1-6.6L58 14.5v1.1l1.3.2c1.7.2 2.4 1.1 2.6 3.5.4 4.5.2 12.4 0 16.3-.2 2.3-1 3.4-2.6 3.6l-1.3.2v1.5h17.4v-1.5l-2.2-.2c-2-.2-2.5-1.3-2.7-3.6-.3-3.5-.3-10.6-.1-15.1.9-1.3 5-2.5 8.8 0l3-7.7z"/>
</svg>
